X:12
C:Page 06
T:Merrily Dance the Quakers….. MBe.12
S:Matthew Betham MS, Towcett Cumbria, 1815
O:England;Cumbria;Towcett
Z:VMP – Hugh Taylor, 2012
T:Merrily Dance the Quakers Wife, aka. MBe.12
T:Merrily Kissed the Quakers Wife, aka. MBe.12
M:6/8
L:1/8
Q:3/8=120
R:.Jig
K:G
D|GAB D2 B|c2 B A2 G|GAB D2 D|E3 G2:|
|:D|G2 B d2 B|e2 c d2 B|G2 B d2 c|B3 d3|
e2 c ABc|d2 B GAB|GAB D2 D|E3 G2:|

